communes/2855.svg

<?xml version="1.0" encoding="UTF-8"?>
<svg version="1.1" viewBox="0 0 540 620" xmlns="http://www.w3.org/2000/svg" xmlns:cc="http://creativecommons.org/ns#" xmlns:dc="http://purl.org/dc/elements/1.1/" xmlns:rdf="http://www.w3.org/1999/02/22-rdf-syntax-ns#" xmlns:xlink="http://www.w3.org/1999/xlink">
<metadata>
<rdf:RDF>
<cc:Work rdf:about="">
<dc:format>image/svg+xml</dc:format>
<dc:type rdf:resource="http://purl.org/dc/dcmitype/StillImage"/>
</cc:Work>
</rdf:RDF>
</metadata>
<title>Wappen von Oltingen</title>
<desc>Wappen der Schweizer Gemeinde Oltingen, Kanton Baselland</desc>
<defs>
<clipPath id="b">
<path d="m9 9h522v341a261 261 0 0 1-522 0z"/>
</clipPath>
</defs>
<path d="m0 0h540v350a270 270 0 0 1-540 0"/>
<path d="m0 620v-457l416 457m124-620v445l-403-445" clip-path="url(#b)" fill="#ffd400"/>
<path id="a" transform="translate(60,72) rotate(-42)" d="m-54 192c-57-64-42-192 54-192s111 128 54 192l-28-18c31-50 18-119-26-119s-57 69-26 119m-35.7-15.3 12.2-4.5-3.1-8.4-12.2 4.5zm-8.3-57.7h13v-9h-13zm20-58.7 9.6 8.8 6-6.7-9.6-8.7zm100 0-6-6.6-9.6 8.7 6 6.7zm20 58.7v-9h-13v9zm-8.3 57.7 3.1-8.4-12.2-4.5-3.1 8.4z" fill="#fff"/>
<use x="131" y="143" xlink:href="#a"/>
<use x="262" y="286" xlink:href="#a"/>
</svg>

<?xml version="1.0" encoding="UTF-8" standalone="no"?>
<svg
   xmlns:dc="http://purl.org/dc/elements/1.1/"
   xmlns:cc="http://creativecommons.org/ns#"
   xmlns:rdf="http://www.w3.org/1999/02/22-rdf-syntax-ns#"
   xmlns:svg="http://www.w3.org/2000/svg"
   xmlns="http://www.w3.org/2000/svg"
   xmlns:xlink="http://www.w3.org/1999/xlink"
   xmlns:sodipodi="http://sodipodi.sourceforge.net/DTD/sodipodi-0.dtd"
   xmlns:inkscape="http://www.inkscape.org/namespaces/inkscape"
   version="1.1"
   width="540"
   height="620"
   viewBox="0,0 540,620"
   id="svg20"
   sodipodi:docname="2855.svg">
  <metadata
     id="metadata24">
    <rdf:RDF>
      <cc:Work
         rdf:about="">
        <dc:format>image/svg+xml</dc:format>
        <dc:type
           rdf:resource="http://purl.org/dc/dcmitype/StillImage" />
      </cc:Work>
    </rdf:RDF>
  </metadata>
  <sodipodi:namedview
     pagecolor="#ffffff"
     bordercolor="#666666"
     borderopacity="1"
     objecttolerance="10"
     gridtolerance="10"
     guidetolerance="10"
     inkscape:pageopacity="0"
     inkscape:pageshadow="2"
     inkscape:window-width="640"
     inkscape:window-height="480"
     id="namedview22" />
  <title
     id="title2">Wappen von Oltingen</title>
  <desc
     id="desc4">Wappen der Schweizer Gemeinde Oltingen, Kanton Baselland</desc>
  <defs
     id="defs9">
    <clipPath
       id="cpSchild">
      <path
         d="M 9,9 H 531 V 350 A 261,261 0 0,1 9,350 z"
         id="path6" />
    </clipPath>
  </defs>
  <path
     d="M 0,0 H 540 V 350 A 270,270 0 0,1 0,350"
     id="path11" />
  <path
     d="M 0,620 L 0,163 416,620 M 540,0 L 540,445 137,0"
     fill="#ffd400"
     clip-path="url(#cpSchild)"
     id="path13" />
  <path
     d="M -54,192 C -111,128 -96,0 0,0 96,0 111,128 54,192 L 26,174 C 57,124 44,55 0,55 -44,55 -57,124 -26,174 M -61.7,158.7 l 12.2,-4.5 -3.1,-8.4 -12.2,4.5 z M -70,101 h 13 V 92 H -70 z M -50,42.3 l 9.6,8.8 6,-6.7 -9.6,-8.7 z M 50,42.3 l -6,-6.6 -9.6,8.7 6,6.7 z M 70,101 V 92 H 57 v 9 z M 61.7,158.7 l 3.1,-8.4 -12.2,-4.5 -3.1,8.4 z"
     id="hufeisen"
     fill="white"
     transform="translate(60,72) rotate(-42)" />
  <use
     x="131"
     y="143"
     xlink:href="#hufeisen"
     id="use16" />
  <use
     x="262"
     y="286"
     xlink:href="#hufeisen"
     id="use18" />
</svg>
